Bleach Bypass.xmp
<x:xmpmeta xmlns:x="adobe:ns:meta/" x:xmptk="Adobe XMP Core 7.0-c000 1.000000, 0000/00/00-00:00:00        ">
 <rdf:RDF xmlns:rdf="http://www.w3.org/1999/02/22-rdf-syntax-ns#">
  <rdf:Description rdf:about=""
    xmlns:crs="http://ns.adobe.com/camera-raw-settings/1.0/"
    crs:PresetType="Normal"
    crs:Cluster=""
    crs:UUID="1717DAA3445B4B7E9CE307DD2D79FB50"
    crs:SupportsAmount="False"
    crs:SupportsColor="True"
    crs:SupportsMonochrome="True"
    crs:SupportsHighDynamicRange="True"
    crs:SupportsNormalDynamicRange="True"
    crs:SupportsSceneReferred="True"
    crs:SupportsOutputReferred="True"
    crs:RequiresRenditionBehavior="True"
    crs:Name="07 Bleach Bypass"
    crs:HasSettings="True"
    crs:Contrast2012="+40"
    crs:Highlights2012="-20"
    crs:Shadows2012="-25"
    crs:Whites2012="+20"
    crs:Blacks2012="-35"
    crs:Vibrance="-30"
    crs:Saturation="-25"
    crs:Texture="+15"
    crs:Clarity2012="+35"
    crs:Dehaze="+10"
    crs:GrainAmount="30"
    crs:GrainFrequency="50">
   <crs:Name>
    <rdf:Alt>
     <rdf:li xml:lang="x-default">07 Bleach Bypass</rdf:li>
    </rdf:Alt>
   </crs:Name>
   <crs:Group>
    <rdf:Alt>
     <rdf:li xml:lang="x-default">Film Simulations</rdf:li>
    </rdf:Alt>
   </crs:Group>
  </rdf:Description>
 </rdf:RDF>
</x:xmpmeta>