Presets/Color-Negative/Agfa Vista 400.xmp
<x:xmpmeta xmlns:crs="http://ns.adobe.com/camera-raw-settings/1.0/" xmlns:rdf="http://www.w3.org/1999/02/22-rdf-syntax-ns#" xmlns:x="adobe:ns:meta/" x:xmptk="Adobe XMP Core 7.0-c000 1.000000, 0000/00/00-00:00:00">
 <rdf:RDF>
 
 <rdf:Description rdf:about=""
  crs:PresetType="Normal"
  crs:Cluster=""
  crs:UUID="7DBB7756937644458A58B3E347432C10"
  crs:SupportsAmount="True"
  crs:SupportsColor="True"
  crs:SupportsMonochrome="True"
  crs:SupportsHighDynamicRange="True"
  crs:SupportsNormalDynamicRange="True"
  crs:SupportsSceneReferred="True"
  crs:SupportsOutputReferred="True"
  crs:RequiresRenditionBehavior="True"
  crs:Name="Agfa Vista 400"
  crs:Treatment="Color"
  crs:ProcessVersion="15.4"
  crs:HasSettings="True"
  crs:Sharpness="10"
  crs:Blacks2012="-18"
  crs:Contrast2012="+15"
  crs:GrainAmount="33"
  crs:GrainFrequency="60"
  crs:GrainSize="35"
  crs:Highlights2012="-8"
  crs:Shadows2012="+20"
  crs:Whites2012="+22"
  crs:Saturation="+10"
  crs:Vibrance="+14"
  crs:SaturationAdjustmentRed="+30"
  crs:SaturationAdjustmentOrange="+10"
  crs:SaturationAdjustmentYellow="+15"
  crs:SaturationAdjustmentGreen="-8"
  crs:SaturationAdjustmentBlue="+18"
  crs:HueAdjustmentRed="-8"
  crs:HueAdjustmentGreen="+5"
  crs:HueAdjustmentYellow="-8"
  crs:HueAdjustmentBlue="-5"
  crs:LuminanceAdjustmentRed="+10"
  crs:LuminanceAdjustmentBlue="+5"
  crs:ColorGradeHighlightHue="50"
  crs:ColorGradeHighlightSat="5"
  crs:ColorGradeShadowHue="245"
  crs:ColorGradeShadowSat="5"
  crs:ColorGradeBlending="50"
  crs:ColorGradeBalance="0"
  crs:LuminanceSmoothing="0">
 <crs:Name>
 <rdf:Alt>
 <rdf:li xml:lang="x-default">Agfa Vista 400</rdf:li>
 </rdf:Alt>
 </crs:Name>
 <crs:Group>
 <rdf:Alt>
 <rdf:li xml:lang="x-default">Color Negative</rdf:li>
 </rdf:Alt>
 </crs:Group>
 <crs:Look>
 
 <rdf:Description crs:Name="Adobe Color" crs:Amount="1.000000" crs:UUID="B952C21111114111B1115456789ABCDE" crs:SupportsAmount="True" crs:SupportsMonochrome="False" crs:SupportsOutputReferred="True">
 <crs:Group>
 <rdf:Alt>
 <rdf:li xml:lang="x-default">Profiles</rdf:li>
 </rdf:Alt>
 </crs:Group>
 </rdf:Description>
 </crs:Look>
<crs:ToneCurvePV2012><rdf:Seq><rdf:li>0, 0</rdf:li><rdf:li>255, 255</rdf:li></rdf:Seq></crs:ToneCurvePV2012><crs:ToneCurvePV2012Red><rdf:Seq><rdf:li>0, 0</rdf:li><rdf:li>255, 255</rdf:li></rdf:Seq></crs:ToneCurvePV2012Red><crs:ToneCurvePV2012Green><rdf:Seq><rdf:li>0, 0</rdf:li><rdf:li>255, 255</rdf:li></rdf:Seq></crs:ToneCurvePV2012Green><crs:ToneCurvePV2012Blue><rdf:Seq><rdf:li>0, 0</rdf:li><rdf:li>255, 255</rdf:li></rdf:Seq></crs:ToneCurvePV2012Blue></rdf:Description>
 </rdf:RDF>
</x:xmpmeta>
