Presets/Color-Negative/CineStill-50D.xmp
<x:xmpmeta xmlns:crs="http://ns.adobe.com/camera-raw-settings/1.0/" xmlns:rdf="http://www.w3.org/1999/02/22-rdf-syntax-ns#" xmlns:x="adobe:ns:meta/" x:xmptk="Adobe XMP Core 7.0-c000 1.000000, 0000/00/00-00:00:00">
 <rdf:RDF>
 
 <rdf:Description rdf:about="" crs:PresetType="Normal" crs:Cluster="" crs:UUID="A105C21111114111B1115456789ABCDE" crs:SupportsAmount="True" crs:SupportsColor="True" crs:SupportsMonochrome="True" crs:SupportsHighDynamicRange="True" crs:SupportsNormalDynamicRange="True" crs:SupportsSceneReferred="True" crs:SupportsOutputReferred="True" crs:RequiresRenditionBehavior="True" crs:Name="CineStill 50D" crs:Treatment="Color" crs:ProcessVersion="15.4"
        crs:HasSettings="True"
        crs:Blacks2012="-5"
        crs:Clarity2012="0"
        crs:Contrast2012="+8"
        crs:Dehaze="0"
        crs:Exposure2012="+0.35"
        crs:Highlights2012="-10"
        crs:Shadows2012="0"
        crs:Whites2012="-5"
        crs:Saturation="-20"
        crs:Vibrance="-17"
        crs:SaturationAdjustmentGreen="-12"
        crs:SaturationAdjustmentBlue="-5"
        crs:LuminanceAdjustmentOrange="+5"
        crs:ColorGradeHighlightHue="40"
        crs:ColorGradeHighlightSat="8"
        crs:ColorGradeShadowHue="200"
        crs:ColorGradeShadowSat="5"
        crs:ColorGradeBlending="50"
        crs:GrainAmount="15"
        crs:GrainSize="15"
        crs:GrainFrequency="50"
        crs:Sharpness="10"
        crs:LuminanceSmoothing="0"
        crs:Texture="0">
 <crs:Name>
 <rdf:Alt>
 <rdf:li xml:lang="x-default">CineStill 50D</rdf:li>
 </rdf:Alt>
 </crs:Name>
 <crs:Group>
 <rdf:Alt>
 <rdf:li xml:lang="x-default">Color Negative</rdf:li>
 </rdf:Alt>
 </crs:Group>
 <crs:Look>
 
 <rdf:Description crs:Name="Adobe Color" crs:Amount="1.000000" crs:UUID="B952C21111114111B1115456789ABCDE" crs:SupportsAmount="True" crs:SupportsMonochrome="False" crs:SupportsOutputReferred="True">
 <crs:Group>
 <rdf:Alt>
 <rdf:li xml:lang="x-default">Profiles</rdf:li>
 </rdf:Alt>
 </crs:Group>
 </rdf:Description>
 </crs:Look>
<crs:ToneCurvePV2012><rdf:Seq><rdf:li>0, 0</rdf:li><rdf:li>255, 255</rdf:li></rdf:Seq></crs:ToneCurvePV2012><crs:ToneCurvePV2012Red><rdf:Seq><rdf:li>0, 0</rdf:li><rdf:li>255, 255</rdf:li></rdf:Seq></crs:ToneCurvePV2012Red><crs:ToneCurvePV2012Green><rdf:Seq><rdf:li>0, 0</rdf:li><rdf:li>255, 255</rdf:li></rdf:Seq></crs:ToneCurvePV2012Green><crs:ToneCurvePV2012Blue><rdf:Seq><rdf:li>0, 0</rdf:li><rdf:li>255, 255</rdf:li></rdf:Seq></crs:ToneCurvePV2012Blue></rdf:Description>
 </rdf:RDF>
</x:xmpmeta>
