Presets/Color-Negative/Fujifilm-Nostalgic-Negative.xmp
<x:xmpmeta xmlns:crs="http://ns.adobe.com/camera-raw-settings/1.0/" xmlns:rdf="http://www.w3.org/1999/02/22-rdf-syntax-ns#" xmlns:x="adobe:ns:meta/" x:xmptk="Adobe XMP Core 7.0-c000 1.000000, 0000/00/00-00:00:00">
 <rdf:RDF>
 
 <rdf:Description rdf:about="" crs:PresetType="Normal" crs:Cluster="" crs:UUID="A104C21111114111B1115456789ABCDE" crs:SupportsAmount="True" crs:SupportsColor="True" crs:SupportsMonochrome="True" crs:SupportsHighDynamicRange="True" crs:SupportsNormalDynamicRange="True" crs:SupportsSceneReferred="True" crs:SupportsOutputReferred="True" crs:RequiresRenditionBehavior="True" crs:Name="Fujifilm Nostalgic Negative" crs:Treatment="Color" crs:ProcessVersion="15.4"
        crs:HasSettings="True"
        crs:Blacks2012="+10"
        crs:Clarity2012="0"
        crs:Contrast2012="-5"
        crs:Dehaze="0"
        crs:Exposure2012="0"
        crs:Highlights2012="-10"
        crs:Shadows2012="0"
        crs:Whites2012="-5"
        crs:Saturation="+15"
        crs:Vibrance="+12"
        crs:HueAdjustmentGreen="+10"
        crs:SaturationAdjustmentGreen="-10"
        crs:LuminanceAdjustmentOrange="+10"
        crs:ColorGradeHighlightHue="45"
        crs:ColorGradeHighlightSat="8"
        crs:ColorGradeShadowHue="40"
        crs:ColorGradeShadowSat="12"
        crs:ColorGradeBlending="50"
        crs:GrainAmount="35"
        crs:GrainSize="15"
        crs:GrainFrequency="50"
        crs:Sharpness="10"
        crs:LuminanceSmoothing="0"
        crs:Texture="0">
 <crs:Name>
 <rdf:Alt>
 <rdf:li xml:lang="x-default">Fujifilm Nostalgic Negative</rdf:li>
 </rdf:Alt>
 </crs:Name>
 <crs:Group>
 <rdf:Alt>
 <rdf:li xml:lang="x-default">Color Negative</rdf:li>
 </rdf:Alt>
 </crs:Group>
 <crs:Look>
 
 <rdf:Description crs:Name="Adobe Color" crs:Amount="1.000000" crs:UUID="B952C21111114111B1115456789ABCDE" crs:SupportsAmount="True" crs:SupportsMonochrome="False" crs:SupportsOutputReferred="True">
 <crs:Group>
 <rdf:Alt>
 <rdf:li xml:lang="x-default">Profiles</rdf:li>
 </rdf:Alt>
 </crs:Group>
 </rdf:Description>
 </crs:Look>
<crs:ToneCurvePV2012><rdf:Seq><rdf:li>0, 0</rdf:li><rdf:li>255, 255</rdf:li></rdf:Seq></crs:ToneCurvePV2012><crs:ToneCurvePV2012Red><rdf:Seq><rdf:li>0, 0</rdf:li><rdf:li>255, 255</rdf:li></rdf:Seq></crs:ToneCurvePV2012Red><crs:ToneCurvePV2012Green><rdf:Seq><rdf:li>0, 0</rdf:li><rdf:li>255, 255</rdf:li></rdf:Seq></crs:ToneCurvePV2012Green><crs:ToneCurvePV2012Blue><rdf:Seq><rdf:li>0, 0</rdf:li><rdf:li>255, 255</rdf:li></rdf:Seq></crs:ToneCurvePV2012Blue></rdf:Description>
 </rdf:RDF>
</x:xmpmeta>
