Presets/Color-Negative/Fuji Reala 100.xmp
<x:xmpmeta xmlns:x="adobe:ns:meta/" x:xmptk="Adobe XMP Core 7.0-c000 1.000000, 0000/00/00-00:00:00">
 <rdf:RDF xmlns:rdf="http://www.w3.org/1999/02/22-rdf-syntax-ns#">
  <rdf:Description rdf:about=""
    xmlns:crs="http://ns.adobe.com/camera-raw-settings/1.0/"
    crs:PresetType="Normal"
    crs:Cluster=""
    crs:UUID="A6F8D2E4913B4C7A82F1E5C9D0B7A3E6"
    crs:SupportsAmount="True"
    crs:SupportsColor="True"
    crs:SupportsMonochrome="True"
    crs:SupportsHighDynamicRange="True"
    crs:SupportsNormalDynamicRange="True"
    crs:SupportsSceneReferred="True"
    crs:SupportsOutputReferred="True"
    crs:RequiresRenditionBehavior="True"
    crs:Name="Fuji Reala 100"
    crs:Treatment="Color"
    crs:ProcessVersion="15.4"
    crs:HasSettings="True"
    crs:Blacks2012="-8"
    crs:Contrast2012="-8"
    crs:GrainAmount="15"
    crs:GrainFrequency="15"
    crs:GrainSize="15"
    crs:Highlights2012="-21"
    crs:HueAdjustmentBlue="-8"
    crs:HueAdjustmentGreen="+8"
    crs:HueAdjustmentOrange="-5"
    crs:HueAdjustmentRed="-5"
    crs:HueAdjustmentYellow="-5"
    crs:Saturation="-5"
    crs:SaturationAdjustmentBlue="-8"
    crs:SaturationAdjustmentGreen="+5"
    crs:SaturationAdjustmentRed="-8"
    crs:Shadows2012="+16"
    crs:SplitToningHighlightHue="210"
    crs:SplitToningHighlightSaturation="5"
    crs:SplitToningShadowHue="216"
    crs:SplitToningShadowSaturation="7">
   <crs:Name>
    <rdf:Alt>
     <rdf:li xml:lang="x-default">Fuji Reala 100</rdf:li>
    </rdf:Alt>
   </crs:Name>
   <crs:Group>
    <rdf:Alt>
     <rdf:li xml:lang="x-default">Color Negative</rdf:li>
    </rdf:Alt>
   </crs:Group>
   <crs:Look>
    <rdf:Description
     crs:Name="Adobe Color"
     crs:Amount="1.000000"
     crs:UUID="B952C21111114111B1115456789ABCDE"
     crs:SupportsAmount="True"
     crs:SupportsMonochrome="False"
     crs:SupportsOutputReferred="True">
     <crs:Group>
      <rdf:Alt>
       <rdf:li xml:lang="x-default">Profiles</rdf:li>
      </rdf:Alt>
     </crs:Group>
    </rdf:Description>
   </crs:Look>
   <crs:ToneCurvePV2012>
    <rdf:Seq>
     <rdf:li>0, 0</rdf:li>
     <rdf:li>255, 255</rdf:li>
    </rdf:Seq>
   </crs:ToneCurvePV2012>
   <crs:ToneCurvePV2012Red>
    <rdf:Seq>
     <rdf:li>0, 0</rdf:li>
     <rdf:li>255, 255</rdf:li>
    </rdf:Seq>
   </crs:ToneCurvePV2012Red>
   <crs:ToneCurvePV2012Green>
    <rdf:Seq>
     <rdf:li>0, 0</rdf:li>
     <rdf:li>255, 255</rdf:li>
    </rdf:Seq>
   </crs:ToneCurvePV2012Green>
   <crs:ToneCurvePV2012Blue>
    <rdf:Seq>
     <rdf:li>0, 0</rdf:li>
     <rdf:li>255, 255</rdf:li>
    </rdf:Seq>
   </crs:ToneCurvePV2012Blue>
  </rdf:Description>
 </rdf:RDF>
</x:xmpmeta>
