Presets/Color-Negative/Kodak Farbwelt 200 Expired.xmp
<x:xmpmeta xmlns:crs="http://ns.adobe.com/camera-raw-settings/1.0/" xmlns:rdf="http://www.w3.org/1999/02/22-rdf-syntax-ns#" xmlns:x="adobe:ns:meta/" x:xmptk="Adobe XMP Core 7.0-c000 1.000000, 0000/00/00-00:00:00">
 <rdf:RDF>
 <rdf:Description rdf:about="" crs:PresetType="Normal" crs:Cluster="" crs:UUID="F7A31E94D6E47F5A0D2314F0H6E8D9A4" crs:SupportsAmount="True" crs:SupportsColor="True" crs:SupportsMonochrome="True" crs:SupportsHighDynamicRange="True" crs:SupportsNormalDynamicRange="True" crs:SupportsSceneReferred="True" crs:SupportsOutputReferred="True" crs:RequiresRenditionBehavior="True" crs:Name="Kodak Farbwelt 200 Expired" crs:Treatment="Color" crs:ProcessVersion="15.4" crs:HasSettings="True" crs:Blacks2012="+20" crs:Clarity2012="0" crs:Contrast2012="-20" crs:Dehaze="0" crs:Exposure2012="+0.15" crs:Highlights2012="-60" crs:Shadows2012="+35" crs:Whites2012="-25" crs:HueAdjustmentRed="+10" crs:HueAdjustmentOrange="+5" crs:HueAdjustmentYellow="-5" crs:HueAdjustmentGreen="+15" crs:HueAdjustmentAqua="-10" crs:HueAdjustmentBlue="-15" crs:HueAdjustmentPurple="-15" crs:HueAdjustmentMagenta="-15" crs:SaturationAdjustmentRed="0" crs:SaturationAdjustmentOrange="0" crs:SaturationAdjustmentYellow="-5" crs:SaturationAdjustmentGreen="-20" crs:SaturationAdjustmentAqua="-15" crs:SaturationAdjustmentBlue="-25" crs:SaturationAdjustmentPurple="-25" crs:SaturationAdjustmentMagenta="-30" crs:LuminanceAdjustmentOrange="+10" crs:LuminanceAdjustmentYellow="+5" crs:LuminanceAdjustmentGreen="-10" crs:LuminanceAdjustmentBlue="-15" crs:GrainAmount="55" crs:GrainSize="40" crs:GrainFrequency="70" crs:Sharpness="10" crs:LuminanceSmoothing="0" crs:Texture="0" crs:ColorGradeMidtoneHue="0" crs:ColorGradeMidtoneSat="0" crs:ColorGradeMidtoneLum="0" crs:ColorGradeHighlightHue="45" crs:ColorGradeHighlightSat="10" crs:ColorGradeHighlightLum="0" crs:ColorGradeShadowHue="30" crs:ColorGradeShadowSat="15" crs:ColorGradeShadowLum="0" crs:ColorGradeGlobalHue="0" crs:ColorGradeGlobalSat="0" crs:ColorGradeGlobalLum="0" crs:ColorGradeBlending="50" crs:ColorGradeBalance="-30">
 <crs:Name>
 <rdf:Alt>
 <rdf:li xml:lang="x-default">Kodak Farbwelt 200 Expired</rdf:li>
 </rdf:Alt>
 </crs:Name>
 <crs:Group>
 <rdf:Alt>
 <rdf:li xml:lang="x-default">Color Negative</rdf:li>
 </rdf:Alt>
 </crs:Group>
 <crs:Look>
 <rdf:Description crs:Name="Adobe Color" crs:Amount="1.000000" crs:UUID="B952C21111114111B1115456789ABCDE" crs:SupportsAmount="True" crs:SupportsMonochrome="False" crs:SupportsOutputReferred="True">
 <crs:Group>
 <rdf:Alt>
 <rdf:li xml:lang="x-default">Profiles</rdf:li>
 </rdf:Alt>
 </crs:Group>
 </rdf:Description>
 </crs:Look>
 <crs:ToneCurvePV2012><rdf:Seq><rdf:li>0, 0</rdf:li><rdf:li>255, 255</rdf:li></rdf:Seq></crs:ToneCurvePV2012><crs:ToneCurvePV2012Red><rdf:Seq><rdf:li>0, 0</rdf:li><rdf:li>255, 255</rdf:li></rdf:Seq></crs:ToneCurvePV2012Red><crs:ToneCurvePV2012Green><rdf:Seq><rdf:li>0, 0</rdf:li><rdf:li>255, 255</rdf:li></rdf:Seq></crs:ToneCurvePV2012Green><crs:ToneCurvePV2012Blue><rdf:Seq><rdf:li>0, 0</rdf:li><rdf:li>255, 255</rdf:li></rdf:Seq></crs:ToneCurvePV2012Blue></rdf:Description>
 </rdf:RDF>
</x:xmpmeta>
