Presets/Color-Negative/Lomochrome Purple.xmp
<x:xmpmeta xmlns:x="adobe:ns:meta/" x:xmptk="Adobe XMP Core 7.0-c000 1.000000, 0000/00/00-00:00:00">
 <rdf:RDF xmlns:rdf="http://www.w3.org/1999/02/22-rdf-syntax-ns#">
 <rdf:Description rdf:about=""
 xmlns:crs="http://ns.adobe.com/camera-raw-settings/1.0/"
 crs:PresetType="Normal"
 crs:Cluster=""
 crs:UUID="8A3F2C7E1B464A929D5E0F8C3B7A1D6F"
 crs:SupportsAmount="True"
 crs:SupportsColor="True"
 crs:SupportsMonochrome="True"
 crs:SupportsHighDynamicRange="True"
 crs:SupportsNormalDynamicRange="True"
 crs:SupportsSceneReferred="True"
 crs:SupportsOutputReferred="True"
 crs:RequiresRenditionBehavior="True"
 crs:Name="Lomochrome Purple"
 crs:Treatment="Color"
 crs:ProcessVersion="15.4"
 crs:HasSettings="True"
 crs:Blacks2012="+10"
 crs:Contrast2012="+18"
 crs:Exposure2012="+0.10"
 crs:GrainAmount="49"
 crs:GrainFrequency="60"
 crs:GrainSize="30"
 crs:Highlights2012="-15"
 crs:HueAdjustmentAqua="-45"
 crs:HueAdjustmentBlue="-93"
 crs:HueAdjustmentGreen="+140"
 crs:HueAdjustmentMagenta="+20"
 crs:HueAdjustmentOrange="-5"
 crs:HueAdjustmentPurple="+35"
 crs:HueAdjustmentRed="+5"
 crs:HueAdjustmentYellow="+33"
 crs:LuminanceAdjustmentAqua="-5"
 crs:LuminanceAdjustmentBlue="+15"
 crs:LuminanceAdjustmentGreen="-15"
 crs:LuminanceAdjustmentMagenta="0"
 crs:LuminanceAdjustmentOrange="0"
 crs:LuminanceAdjustmentPurple="-5"
 crs:LuminanceAdjustmentRed="0"
 crs:LuminanceAdjustmentYellow="+10"
 crs:Saturation="+5"
 crs:SaturationAdjustmentAqua="+12"
 crs:SaturationAdjustmentBlue="-44"
 crs:SaturationAdjustmentGreen="+34"
 crs:SaturationAdjustmentMagenta="+39"
 crs:SaturationAdjustmentOrange="-5"
 crs:SaturationAdjustmentPurple="+35"
 crs:SaturationAdjustmentRed="-5"
 crs:SaturationAdjustmentYellow="+18"
 crs:Shadows2012="+15"

 crs:Vibrance="+5"
 crs:Whites2012="+5">
 <crs:Name>
 <rdf:Alt>
 <rdf:li xml:lang="x-default">Lomochrome Purple</rdf:li>
 </rdf:Alt>
 </crs:Name>
 <crs:Group>
 <rdf:Alt>
 <rdf:li xml:lang="x-default">Color Negative</rdf:li>
 </rdf:Alt>
 </crs:Group>
 <crs:ToneCurvePV2012>
 <rdf:Seq>
 <rdf:li>0, 0</rdf:li>
 <rdf:li>42, 28</rdf:li>
 <rdf:li>128, 128</rdf:li>
 <rdf:li>213, 230</rdf:li>
 <rdf:li>255, 255</rdf:li>
 </rdf:Seq>
 </crs:ToneCurvePV2012>
 <crs:ToneCurvePV2012Red>
 <rdf:Seq>
 <rdf:li>0, 0</rdf:li>
 <rdf:li>42, 28</rdf:li>
 <rdf:li>128, 128</rdf:li>
 <rdf:li>213, 230</rdf:li>
 <rdf:li>255, 255</rdf:li>
 </rdf:Seq>
 </crs:ToneCurvePV2012Red>
 <crs:ToneCurvePV2012Green>
 <rdf:Seq>
 <rdf:li>0, 0</rdf:li>
 <rdf:li>42, 28</rdf:li>
 <rdf:li>128, 128</rdf:li>
 <rdf:li>213, 230</rdf:li>
 <rdf:li>255, 255</rdf:li>
 </rdf:Seq>
 </crs:ToneCurvePV2012Green>
 <crs:ToneCurvePV2012Blue>
 <rdf:Seq>
 <rdf:li>0, 0</rdf:li>
 <rdf:li>42, 28</rdf:li>
 <rdf:li>128, 128</rdf:li>
 <rdf:li>213, 230</rdf:li>
 <rdf:li>255, 255</rdf:li>
 </rdf:Seq>
 </crs:ToneCurvePV2012Blue>
 <crs:Look>
 <rdf:Description
 crs:Name="Adobe Color"
 crs:Amount="1.000000"
 crs:UUID="B952C21111114111B1115456789ABCDE"
 crs:SupportsAmount="True"
 crs:SupportsMonochrome="False"
 crs:SupportsOutputReferred="True">
 <crs:Group>
 <rdf:Alt>
 <rdf:li xml:lang="x-default">Profiles</rdf:li>
 </rdf:Alt>
 </crs:Group>
 </rdf:Description>
 </crs:Look>
 crs:ColorGradeMidtoneHue="0"
 crs:ColorGradeMidtoneSat="0"
 crs:ColorGradeMidtoneLum="0"
 crs:ColorGradeHighlightHue="305"
 crs:ColorGradeHighlightSat="20"
 crs:ColorGradeHighlightLum="0"
 crs:ColorGradeShadowHue="210"
 crs:ColorGradeShadowSat="11"
 crs:ColorGradeShadowLum="0"
 crs:ColorGradeGlobalHue="0"
 crs:ColorGradeGlobalSat="0"
 crs:ColorGradeGlobalLum="0"
 crs:ColorGradeBlending="50"
 crs:ColorGradeBalance="+16"
 crs:ColorGradeMidtoneHue="0"
 crs:ColorGradeMidtoneSat="0"
 crs:ColorGradeMidtoneLum="0"
 crs:ColorGradeHighlightHue="305"
 crs:ColorGradeHighlightSat="20"
 crs:ColorGradeHighlightLum="0"
 crs:ColorGradeShadowHue="210"
 crs:ColorGradeShadowSat="11"
 crs:ColorGradeShadowLum="0"
 crs:ColorGradeGlobalHue="0"
 crs:ColorGradeGlobalSat="0"
 crs:ColorGradeGlobalLum="0"
 crs:ColorGradeBlending="50"
 crs:ColorGradeBalance="+16"
 crs:ColorGradeMidtoneHue="0"
 crs:ColorGradeMidtoneSat="0"
 crs:ColorGradeMidtoneLum="0"
 crs:ColorGradeHighlightHue="305"
 crs:ColorGradeHighlightSat="20"
 crs:ColorGradeHighlightLum="0"
 crs:ColorGradeShadowHue="210"
 crs:ColorGradeShadowSat="11"
 crs:ColorGradeShadowLum="0"
 crs:ColorGradeGlobalHue="0"
 crs:ColorGradeGlobalSat="0"
 crs:ColorGradeGlobalLum="0"
 crs:ColorGradeBlending="50"
 crs:ColorGradeBalance="+16"
 crs:ColorGradeMidtoneHue="0"
 crs:ColorGradeMidtoneSat="0"
 crs:ColorGradeMidtoneLum="0"
 crs:ColorGradeHighlightHue="305"
 crs:ColorGradeHighlightSat="20"
 crs:ColorGradeHighlightLum="0"
 crs:ColorGradeShadowHue="210"
 crs:ColorGradeShadowSat="11"
 crs:ColorGradeShadowLum="0"
 crs:ColorGradeGlobalHue="0"
 crs:ColorGradeGlobalSat="0"
 crs:ColorGradeGlobalLum="0"
 crs:ColorGradeBlending="50"
 crs:ColorGradeBalance="+16"
 </rdf:Description>
 </rdf:RDF>
</x:xmpmeta>
