Presets/Kodak Tri-X 400.xmp
<x:xmpmeta xmlns:x="adobe:ns:meta/" x:xmptk="Adobe XMP Core 7.0-c000 1.000000, 0000/00/00-00:00:00        ">
 <rdf:RDF xmlns:rdf="http://www.w3.org/1999/02/22-rdf-syntax-ns#">
  <rdf:Description rdf:about=""
    xmlns:crs="http://ns.adobe.com/camera-raw-settings/1.0/"
    crs:PresetType="Normal"
    crs:Cluster=""
    crs:UUID="28D3EEF8AFCF4C829D26A77B57F2A5CE"
    crs:SupportsAmount="False"
    crs:SupportsColor="True"
    crs:SupportsMonochrome="True"
    crs:SupportsHighDynamicRange="True"
    crs:SupportsNormalDynamicRange="True"
    crs:SupportsSceneReferred="True"
    crs:SupportsOutputReferred="True"
    crs:RequiresRenditionBehavior="True"
    crs:Name="05 Kodak Tri-X 400"
    crs:HasSettings="True"
    crs:ConvertToGrayscale="True"
    crs:Contrast2012="+35"
    crs:Highlights2012="-10"
    crs:Shadows2012="-15"
    crs:Whites2012="+20"
    crs:Blacks2012="-30"
    crs:GrayMixerYellow="+15"
    crs:GrayMixerGreen="+20"
    crs:GrayMixerBlue="-15"
    crs:Clarity2012="+15"
    crs:GrainAmount="55"
    crs:GrainSize="40"
    crs:GrainFrequency="50">
   <crs:Name>
    <rdf:Alt>
     <rdf:li xml:lang="x-default">05 Kodak Tri-X 400</rdf:li>
    </rdf:Alt>
   </crs:Name>
   <crs:Group>
    <rdf:Alt>
     <rdf:li xml:lang="x-default">Film Simulations</rdf:li>
    </rdf:Alt>
   </crs:Group>
  </rdf:Description>
 </rdf:RDF>
</x:xmpmeta>