Presets/Creative/Arctic-Cinematic.xmp
<x:xmpmeta xmlns:crs="http://ns.adobe.com/camera-raw-settings/1.0/" xmlns:rdf="http://www.w3.org/1999/02/22-rdf-syntax-ns#" xmlns:x="adobe:ns:meta/" x:xmptk="Adobe XMP Core 7.0-c000 1.000000, 0000/00/00-00:00:00">
 <rdf:RDF>
 
 
 <rdf:Description rdf:about="" crs:PresetType="Normal" crs:Cluster="" crs:UUID="6666357E44AC424193220C1BD87141F3" crs:SupportsAmount="True" crs:SupportsColor="True" crs:SupportsMonochrome="True" crs:SupportsHighDynamicRange="True" crs:SupportsNormalDynamicRange="True" crs:SupportsSceneReferred="True" crs:SupportsOutputReferred="True" crs:RequiresRenditionBehavior="True" crs:ProcessVersion="15.4" crs:Treatment="Color" crs:HasSettings="True" crs:Name="Arctic Cinematic" crs:Exposure2012="+0.10" crs:Contrast2012="+15" crs:Highlights2012="-35" crs:Shadows2012="+25" crs:Whites2012="+12" crs:Blacks2012="0" crs:Saturation="-5" crs:Vibrance="-3" crs:Clarity2012="+10" crs:Temperature="3950" crs:Sharpness="10" crs:LuminanceSmoothing="0" crs:ColorGradeBlending="75" crs:ColorGradeShadowHue="220" crs:ColorGradeShadowSat="12" crs:ColorGradeHighlightHue="210" crs:ColorGradeHighlightSat="8" crs:ColorGradeMidtoneHue="215" crs:ColorGradeMidtoneSat="5" crs:ColorGradeGlobalHue="0" crs:ColorGradeGlobalSat="0" crs:ColorGradeShadowLum="0" crs:ColorGradeHighlightLum="0" crs:ColorGradeMidtoneLum="0" crs:ColorGradeGlobalLum="0" crs:ColorGradeBalance="+10">
 <crs:Name>
 <rdf:Alt>
 <rdf:li xml:lang="x-default">Arctic Cinematic</rdf:li>
 </rdf:Alt>
 </crs:Name>
 <crs:Group>
 <rdf:Alt>
 <rdf:li xml:lang="x-default">Creative</rdf:li>
 </rdf:Alt>
 </crs:Group>
 <crs:Look>
 
 
 <rdf:Description crs:Name="Adobe Color" crs:Amount="1.000000" crs:UUID="B952C21111114111B1115456789ABCDE" crs:SupportsAmount="True" crs:SupportsMonochrome="False" crs:SupportsOutputReferred="True">
 <crs:Group>
 <rdf:Alt>
 <rdf:li xml:lang="x-default">Profiles</rdf:li>
 </rdf:Alt>
 </crs:Group>
 </rdf:Description>
 </crs:Look>
 <crs:ToneCurvePV2012><rdf:Seq><rdf:li>0, 20</rdf:li><rdf:li>64, 55</rdf:li><rdf:li>128, 128</rdf:li><rdf:li>192, 196</rdf:li><rdf:li>255, 235</rdf:li></rdf:Seq></crs:ToneCurvePV2012><crs:ToneCurvePV2012Red><rdf:Seq><rdf:li>0, 20</rdf:li><rdf:li>64, 55</rdf:li><rdf:li>128, 128</rdf:li><rdf:li>192, 196</rdf:li><rdf:li>255, 235</rdf:li></rdf:Seq></crs:ToneCurvePV2012Red><crs:ToneCurvePV2012Green><rdf:Seq><rdf:li>0, 20</rdf:li><rdf:li>64, 55</rdf:li><rdf:li>128, 128</rdf:li><rdf:li>192, 196</rdf:li><rdf:li>255, 235</rdf:li></rdf:Seq></crs:ToneCurvePV2012Green><crs:ToneCurvePV2012Blue><rdf:Seq><rdf:li>0, 20</rdf:li><rdf:li>64, 55</rdf:li><rdf:li>128, 128</rdf:li><rdf:li>192, 196</rdf:li><rdf:li>255, 235</rdf:li></rdf:Seq></crs:ToneCurvePV2012Blue></rdf:Description>
 </rdf:RDF>
</x:xmpmeta>