Presets/Creative/Disposable Camera Flash.xmp
<x:xmpmeta xmlns:x="adobe:ns:meta/" x:xmptk="Adobe XMP Core 7.0-c000 1.000000, 0000/00/00-00:00:00">
 <rdf:RDF xmlns:rdf="http://www.w3.org/1999/02/22-rdf-syntax-ns#">
 <rdf:Description rdf:about=""
 xmlns:crs="http://ns.adobe.com/camera-raw-settings/1.0/"
 crs:PresetType="Normal"
 crs:Cluster=""
 crs:UUID="C42F7A9E1B3D56A8F2E4C9B7D5A1E6F3"
 crs:SupportsAmount="True"
 crs:SupportsColor="True"
 crs:SupportsMonochrome="True"
 crs:SupportsHighDynamicRange="True"
 crs:SupportsNormalDynamicRange="True"
 crs:SupportsSceneReferred="True"
 crs:SupportsOutputReferred="True"
 crs:RequiresRenditionBehavior="True"
 crs:Name="Disposable Camera Flash"
 crs:Treatment="Color"
 crs:ProcessVersion="15.4"
 crs:HasSettings="True"
 crs:Blacks2012="+40"
 crs:Clarity2012="-40"
 crs:Contrast2012="-25"
 crs:Dehaze="-15"
 crs:GrainAmount="50"
 crs:GrainFrequency="60"
 crs:GrainSize="30"
 crs:Highlights2012="-50"
 crs:HueAdjustmentGreen="-12"
 crs:HueAdjustmentRed="+15"
 crs:LuminanceAdjustmentOrange="+10"
 crs:PostCropVignetteAmount="-20"
 crs:PostCropVignetteFeather="65"
 crs:PostCropVignetteMidpoint="32"
 crs:Saturation="0"
 crs:SaturationAdjustmentAqua="-10"
 crs:SaturationAdjustmentBlue="-10"
 crs:SaturationAdjustmentGreen="-15"
 crs:SaturationAdjustmentOrange="+15"
 crs:SaturationAdjustmentRed="+12"
 crs:SaturationAdjustmentYellow="+10"
 crs:Shadows2012="+40"
 crs:Sharpness="15"
 crs:SharpnessDetail="0"
 crs:SharpnessMasking="0"
 crs:SharpnessRadius="+2.0"

 crs:Texture="-20"
 crs:Vibrance="+2"
 crs:Whites2012="+15">
 <crs:Name>
 <rdf:Alt>
 <rdf:li xml:lang="x-default">Disposable Camera Flash</rdf:li>
 </rdf:Alt>
 </crs:Name>
 <crs:Group>
 <rdf:Alt>
 <rdf:li xml:lang="x-default">Creative</rdf:li>
 </rdf:Alt>
 </crs:Group>
 <crs:ToneCurvePV2012>
 <rdf:Seq>
 <rdf:li>0, 20</rdf:li>
 <rdf:li>64, 55</rdf:li>
 <rdf:li>128, 128</rdf:li>
 <rdf:li>192, 196</rdf:li>
 <rdf:li>255, 235</rdf:li>
 </rdf:Seq>
 </crs:ToneCurvePV2012>
 <crs:ToneCurvePV2012Red>
 <rdf:Seq>
 <rdf:li>0, 20</rdf:li>
 <rdf:li>64, 55</rdf:li>
 <rdf:li>128, 128</rdf:li>
 <rdf:li>192, 196</rdf:li>
 <rdf:li>255, 235</rdf:li>
 </rdf:Seq>
 </crs:ToneCurvePV2012Red>
 <crs:ToneCurvePV2012Green>
 <rdf:Seq>
 <rdf:li>0, 20</rdf:li>
 <rdf:li>64, 55</rdf:li>
 <rdf:li>128, 128</rdf:li>
 <rdf:li>192, 196</rdf:li>
 <rdf:li>255, 235</rdf:li>
 </rdf:Seq>
 </crs:ToneCurvePV2012Green>
 <crs:ToneCurvePV2012Blue>
 <rdf:Seq>
 <rdf:li>0, 20</rdf:li>
 <rdf:li>64, 55</rdf:li>
 <rdf:li>128, 128</rdf:li>
 <rdf:li>192, 196</rdf:li>
 <rdf:li>255, 235</rdf:li>
 </rdf:Seq>
 </crs:ToneCurvePV2012Blue>
 <crs:Look>
 <rdf:Description
 crs:Name="Adobe Color"
 crs:Amount="1.000000"
 crs:UUID="B952C21111114111B1115456789ABCDE"
 crs:SupportsAmount="True"
 crs:SupportsMonochrome="False"
 crs:SupportsOutputReferred="True">
 <crs:Group>
 <rdf:Alt>
 <rdf:li xml:lang="x-default">Profiles</rdf:li>
 </rdf:Alt>
 </crs:Group>
 </rdf:Description>
 </crs:Look>
 crs:ColorGradeMidtoneHue="0"
 crs:ColorGradeMidtoneSat="0"
 crs:ColorGradeMidtoneLum="0"
 crs:ColorGradeHighlightHue="45"
 crs:ColorGradeHighlightSat="18"
 crs:ColorGradeHighlightLum="0"
 crs:ColorGradeShadowHue="35"
 crs:ColorGradeShadowSat="12"
 crs:ColorGradeShadowLum="0"
 crs:ColorGradeGlobalHue="0"
 crs:ColorGradeGlobalSat="0"
 crs:ColorGradeGlobalLum="0"
 crs:ColorGradeBlending="50"
 crs:ColorGradeBalance="0"
 crs:ColorGradeMidtoneHue="0"
 crs:ColorGradeMidtoneSat="0"
 crs:ColorGradeMidtoneLum="0"
 crs:ColorGradeHighlightHue="45"
 crs:ColorGradeHighlightSat="18"
 crs:ColorGradeHighlightLum="0"
 crs:ColorGradeShadowHue="35"
 crs:ColorGradeShadowSat="12"
 crs:ColorGradeShadowLum="0"
 crs:ColorGradeGlobalHue="0"
 crs:ColorGradeGlobalSat="0"
 crs:ColorGradeGlobalLum="0"
 crs:ColorGradeBlending="50"
 crs:ColorGradeBalance="0"
 crs:ColorGradeMidtoneHue="0"
 crs:ColorGradeMidtoneSat="0"
 crs:ColorGradeMidtoneLum="0"
 crs:ColorGradeHighlightHue="45"
 crs:ColorGradeHighlightSat="18"
 crs:ColorGradeHighlightLum="0"
 crs:ColorGradeShadowHue="35"
 crs:ColorGradeShadowSat="12"
 crs:ColorGradeShadowLum="0"
 crs:ColorGradeGlobalHue="0"
 crs:ColorGradeGlobalSat="0"
 crs:ColorGradeGlobalLum="0"
 crs:ColorGradeBlending="50"
 crs:ColorGradeBalance="0"
 crs:ColorGradeMidtoneHue="0"
 crs:ColorGradeMidtoneSat="0"
 crs:ColorGradeMidtoneLum="0"
 crs:ColorGradeHighlightHue="45"
 crs:ColorGradeHighlightSat="18"
 crs:ColorGradeHighlightLum="0"
 crs:ColorGradeShadowHue="35"
 crs:ColorGradeShadowSat="12"
 crs:ColorGradeShadowLum="0"
 crs:ColorGradeGlobalHue="0"
 crs:ColorGradeGlobalSat="0"
 crs:ColorGradeGlobalLum="0"
 crs:ColorGradeBlending="50"
 crs:ColorGradeBalance="0"
 </rdf:Description>
 </rdf:RDF>
</x:xmpmeta>
