Presets/Creative/Kodak Aerochrome.xmp
<x:xmpmeta xmlns:x="adobe:ns:meta/" x:xmptk="Adobe XMP Core 7.0-c000 1.000000, 0000/00/00-00:00:00">
 <rdf:RDF xmlns:rdf="http://www.w3.org/1999/02/22-rdf-syntax-ns#">
  <rdf:Description rdf:about=""
    xmlns:crs="http://ns.adobe.com/camera-raw-settings/1.0/"
    crs:PresetType="Normal"
    crs:Cluster=""
    crs:UUID="A7E3B8F1D2C04659A7E3B8F1D2C5A9E0"
    crs:SupportsAmount="True"
    crs:SupportsColor="True"
    crs:SupportsMonochrome="True"
    crs:SupportsHighDynamicRange="True"
    crs:SupportsNormalDynamicRange="True"
    crs:SupportsSceneReferred="True"
    crs:SupportsOutputReferred="True"
    crs:RequiresRenditionBehavior="True"
    crs:Name="Kodak Aerochrome"
    crs:Treatment="Color"
    crs:ProcessVersion="15.4"
    crs:HasSettings="True"
    crs:Blacks2012="-20"
    crs:Contrast2012="+18"
    crs:Exposure2012="0"
    crs:GrainAmount="30"
    crs:GrainFrequency="50"
    crs:GrainSize="40"
    crs:Highlights2012="-45"
    crs:HueAdjustmentAqua="+15"
    crs:HueAdjustmentBlue="-45"
    crs:HueAdjustmentGreen="-110"
    crs:HueAdjustmentMagenta="-10"
    crs:HueAdjustmentOrange="+25"
    crs:HueAdjustmentPurple="+45"
    crs:HueAdjustmentRed="+50"
    crs:HueAdjustmentYellow="-90"
    crs:LuminanceAdjustmentBlue="-30"
    crs:LuminanceAdjustmentGreen="-30"
    crs:LuminanceAdjustmentRed="+15"
    crs:LuminanceAdjustmentYellow="-15"
    crs:Saturation="+8"
    crs:SaturationAdjustmentAqua="+30"
    crs:SaturationAdjustmentBlue="+45"
    crs:SaturationAdjustmentGreen="-60"
    crs:SaturationAdjustmentMagenta="+20"
    crs:SaturationAdjustmentOrange="+15"
    crs:SaturationAdjustmentPurple="+30"
    crs:SaturationAdjustmentRed="+30"
    crs:SaturationAdjustmentYellow="-45"
    crs:Shadows2012="+15"
    crs:SplitToningBalance="-10"
    crs:SplitToningHighlightHue="320"
    crs:SplitToningHighlightSaturation="12"
    crs:SplitToningShadowHue="210"
    crs:SplitToningShadowSaturation="10"
    crs:Vibrance="+8"
    crs:Whites2012="+10">
   <crs:Name>
    <rdf:Alt>
     <rdf:li xml:lang="x-default">Kodak Aerochrome</rdf:li>
    </rdf:Alt>
   </crs:Name>
   <crs:Group>
    <rdf:Alt>
     <rdf:li xml:lang="x-default">Creative</rdf:li>
    </rdf:Alt>
   </crs:Group>
   <crs:Look>
    <rdf:Description
     crs:Name="Adobe Color"
     crs:Amount="1.000000"
     crs:UUID="B952C21111114111B1115456789ABCDE"
     crs:SupportsAmount="True"
     crs:SupportsMonochrome="False"
     crs:SupportsOutputReferred="True">
     <crs:Group>
      <rdf:Alt>
       <rdf:li xml:lang="x-default">Profiles</rdf:li>
      </rdf:Alt>
     </crs:Group>
    </rdf:Description>
   </crs:Look>
   <crs:ToneCurvePV2012>
    <rdf:Seq>
     <rdf:li>0, 0</rdf:li>
     <rdf:li>255, 255</rdf:li>
    </rdf:Seq>
   </crs:ToneCurvePV2012>
   <crs:ToneCurvePV2012Red>
    <rdf:Seq>
     <rdf:li>0, 0</rdf:li>
     <rdf:li>255, 255</rdf:li>
    </rdf:Seq>
   </crs:ToneCurvePV2012Red>
   <crs:ToneCurvePV2012Green>
    <rdf:Seq>
     <rdf:li>0, 0</rdf:li>
     <rdf:li>255, 255</rdf:li>
    </rdf:Seq>
   </crs:ToneCurvePV2012Green>
   <crs:ToneCurvePV2012Blue>
    <rdf:Seq>
     <rdf:li>0, 0</rdf:li>
     <rdf:li>255, 255</rdf:li>
    </rdf:Seq>
   </crs:ToneCurvePV2012Blue>
  </rdf:Description>
 </rdf:RDF>
</x:xmpmeta>
