Presets/Slide/Fuji Velvia 50.xmp
<x:xmpmeta xmlns:x="adobe:ns:meta/" x:xmptk="Adobe XMP Core 7.0-c000 1.000000, 0000/00/00-00:00:00">
 <rdf:RDF xmlns:rdf="http://www.w3.org/1999/02/22-rdf-syntax-ns#">
 <rdf:Description rdf:about=""
 xmlns:crs="http://ns.adobe.com/camera-raw-settings/1.0/"
 crs:PresetType="Normal"
 crs:Cluster=""
 crs:UUID="078189EBAB224795BD417336F772CDBC"
 crs:SupportsAmount="True"
 crs:SupportsColor="True"
 crs:SupportsMonochrome="True"
 crs:SupportsHighDynamicRange="True"
 crs:SupportsNormalDynamicRange="True"
 crs:SupportsSceneReferred="True"
 crs:SupportsOutputReferred="True"
 crs:RequiresRenditionBehavior="True"
 crs:Name="07 Fuji Velvia 50"
 crs:Treatment="Color"
 crs:ProcessVersion="15.4"
 crs:HasSettings="True"
 crs:Blacks2012="-40"
 crs:Clarity2012="+22.5"
 crs:Contrast2012="+40"
 crs:Dehaze="+11.3"
 crs:GrainAmount="5"
 crs:GrainFrequency="50"
 crs:GrainSize="25"
 crs:Highlights2012="-65"
 crs:HueAdjustmentAqua="+15"
 crs:HueAdjustmentBlue="-7.5"
 crs:HueAdjustmentGreen="+22.5"
 crs:HueAdjustmentMagenta="+10"
 crs:HueAdjustmentOrange="-10"
 crs:HueAdjustmentPurple="+15"
 crs:HueAdjustmentRed="+15"
 crs:HueAdjustmentYellow="-17.5"
 crs:LuminanceAdjustmentAqua="-15"
 crs:LuminanceAdjustmentBlue="-22.5"
 crs:LuminanceAdjustmentGreen="-15"
 crs:LuminanceAdjustmentOrange="+7.5"
 crs:LuminanceAdjustmentYellow="+7.5"
 crs:Saturation="-5"
 crs:SaturationAdjustmentAqua="-15"
 crs:SaturationAdjustmentBlue="+26.3"
 crs:SaturationAdjustmentGreen="+35"
 crs:SaturationAdjustmentMagenta="+20"
 crs:SaturationAdjustmentOrange="+20"
 crs:SaturationAdjustmentPurple="+15"
 crs:SaturationAdjustmentRed="+22.5"
 crs:SaturationAdjustmentYellow="+12.5"
 crs:Shadows2012="-30"

 crs:Texture="-5"
 crs:Whites2012="+15">
 <crs:Name>
 <rdf:Alt>
 <rdf:li xml:lang="x-default">07 Fuji Velvia 50</rdf:li>
 </rdf:Alt>
 </crs:Name>
 <crs:Group>
 <rdf:Alt>
 <rdf:li xml:lang="x-default">Slide</rdf:li>
 </rdf:Alt>
 </crs:Group>
 <crs:ToneCurvePV2012>
 <rdf:Seq>
 <rdf:li>0, 0</rdf:li>
 <rdf:li>42, 28</rdf:li>
 <rdf:li>128, 128</rdf:li>
 <rdf:li>213, 230</rdf:li>
 <rdf:li>255, 255</rdf:li>
 </rdf:Seq>
 </crs:ToneCurvePV2012>
 <crs:ToneCurvePV2012Red>
 <rdf:Seq>
 <rdf:li>0, 0</rdf:li>
 <rdf:li>42, 28</rdf:li>
 <rdf:li>128, 128</rdf:li>
 <rdf:li>213, 230</rdf:li>
 <rdf:li>255, 255</rdf:li>
 </rdf:Seq>
 </crs:ToneCurvePV2012Red>
 <crs:ToneCurvePV2012Green>
 <rdf:Seq>
 <rdf:li>0, 0</rdf:li>
 <rdf:li>42, 28</rdf:li>
 <rdf:li>128, 128</rdf:li>
 <rdf:li>213, 230</rdf:li>
 <rdf:li>255, 255</rdf:li>
 </rdf:Seq>
 </crs:ToneCurvePV2012Green>
 <crs:ToneCurvePV2012Blue>
 <rdf:Seq>
 <rdf:li>0, 0</rdf:li>
 <rdf:li>42, 28</rdf:li>
 <rdf:li>128, 128</rdf:li>
 <rdf:li>213, 230</rdf:li>
 <rdf:li>255, 255</rdf:li>
 </rdf:Seq>
 </crs:ToneCurvePV2012Blue>
 <crs:Look>
 <rdf:Description
 crs:Name="Adobe Vivid"
 crs:Amount="1.000000"
 crs:UUID="EA1DE074F188405965EF399C72C221D9"
 crs:SupportsAmount="True"
 crs:SupportsMonochrome="False"
 crs:SupportsOutputReferred="True">
 <crs:Group>
 <rdf:Alt>
 <rdf:li xml:lang="x-default">Profiles</rdf:li>
 </rdf:Alt>
 </crs:Group>
 </rdf:Description>
 </crs:Look>
 crs:ColorGradeMidtoneHue="0"
 crs:ColorGradeMidtoneSat="0"
 crs:ColorGradeMidtoneLum="0"
 crs:ColorGradeHighlightHue="50"
 crs:ColorGradeHighlightSat="7.5"
 crs:ColorGradeHighlightLum="0"
 crs:ColorGradeShadowHue="230"
 crs:ColorGradeShadowSat="10"
 crs:ColorGradeShadowLum="0"
 crs:ColorGradeGlobalHue="0"
 crs:ColorGradeGlobalSat="0"
 crs:ColorGradeGlobalLum="0"
 crs:ColorGradeBlending="50"
 crs:ColorGradeBalance="-5"
 crs:ColorGradeMidtoneHue="0"
 crs:ColorGradeMidtoneSat="0"
 crs:ColorGradeMidtoneLum="0"
 crs:ColorGradeHighlightHue="50"
 crs:ColorGradeHighlightSat="7.5"
 crs:ColorGradeHighlightLum="0"
 crs:ColorGradeShadowHue="230"
 crs:ColorGradeShadowSat="10"
 crs:ColorGradeShadowLum="0"
 crs:ColorGradeGlobalHue="0"
 crs:ColorGradeGlobalSat="0"
 crs:ColorGradeGlobalLum="0"
 crs:ColorGradeBlending="50"
 crs:ColorGradeBalance="-5"
 crs:ColorGradeMidtoneHue="0"
 crs:ColorGradeMidtoneSat="0"
 crs:ColorGradeMidtoneLum="0"
 crs:ColorGradeHighlightHue="50"
 crs:ColorGradeHighlightSat="7.5"
 crs:ColorGradeHighlightLum="0"
 crs:ColorGradeShadowHue="230"
 crs:ColorGradeShadowSat="10"
 crs:ColorGradeShadowLum="0"
 crs:ColorGradeGlobalHue="0"
 crs:ColorGradeGlobalSat="0"
 crs:ColorGradeGlobalLum="0"
 crs:ColorGradeBlending="50"
 crs:ColorGradeBalance="-5"
 crs:ColorGradeMidtoneHue="0"
 crs:ColorGradeMidtoneSat="0"
 crs:ColorGradeMidtoneLum="0"
 crs:ColorGradeHighlightHue="50"
 crs:ColorGradeHighlightSat="7.5"
 crs:ColorGradeHighlightLum="0"
 crs:ColorGradeShadowHue="230"
 crs:ColorGradeShadowSat="10"
 crs:ColorGradeShadowLum="0"
 crs:ColorGradeGlobalHue="0"
 crs:ColorGradeGlobalSat="0"
 crs:ColorGradeGlobalLum="0"
 crs:ColorGradeBlending="50"
 crs:ColorGradeBalance="-5"
 </rdf:Description>
 </rdf:RDF>
</x:xmpmeta>
