Presets/Slide/Kodachrome 64.xmp
<x:xmpmeta xmlns:crs="http://ns.adobe.com/camera-raw-settings/1.0/" xmlns:rdf="http://www.w3.org/1999/02/22-rdf-syntax-ns#" xmlns:x="adobe:ns:meta/" x:xmptk="Adobe XMP Core 7.0-c000 1.000000, 0000/00/00-00:00:00">
 <rdf:RDF>
 
 <rdf:Description rdf:about="" crs:PresetType="Normal" crs:Cluster="" crs:UUID="8DBB5E10A882424DBF3AEDEC104E5DA6" crs:SupportsAmount="True" crs:SupportsColor="True" crs:SupportsMonochrome="True" crs:SupportsHighDynamicRange="True" crs:SupportsNormalDynamicRange="True" crs:SupportsSceneReferred="True" crs:SupportsOutputReferred="True" crs:RequiresRenditionBehavior="True" crs:Name="04 Kodachrome 64" crs:Treatment="Color" crs:ProcessVersion="15.4" crs:HasSettings="True" crs:Blacks2012="0" crs:Clarity2012="-5" crs:Contrast2012="+20" crs:Dehaze="+10" crs:Exposure2012="+0.10" crs:GrainAmount="30" crs:GrainFrequency="50" crs:GrainSize="25" crs:Highlights2012="-13.8" crs:HueAdjustmentAqua="0" crs:HueAdjustmentBlue="-10" crs:HueAdjustmentGreen="+15" crs:HueAdjustmentMagenta="0" crs:HueAdjustmentOrange="0" crs:HueAdjustmentPurple="0" crs:HueAdjustmentRed="+10" crs:HueAdjustmentYellow="-5" crs:LuminanceAdjustmentAqua="0" crs:LuminanceAdjustmentBlue="-15" crs:LuminanceAdjustmentGreen="0" crs:LuminanceAdjustmentMagenta="0" crs:LuminanceAdjustmentOrange="0" crs:LuminanceAdjustmentPurple="0" crs:LuminanceAdjustmentRed="-10" crs:LuminanceAdjustmentYellow="0" crs:Saturation="-5" crs:SaturationAdjustmentAqua="+15" crs:SaturationAdjustmentBlue="+17.5" crs:SaturationAdjustmentGreen="0" crs:SaturationAdjustmentMagenta="0" crs:SaturationAdjustmentOrange="0" crs:SaturationAdjustmentPurple="0" crs:SaturationAdjustmentRed="+20" crs:SaturationAdjustmentYellow="0" crs:Shadows2012="+22.5" crs:Texture="0" crs:Vibrance="-5" crs:Whites2012="-10" crs:ColorGradeMidtoneHue="0" crs:ColorGradeMidtoneSat="0" crs:ColorGradeMidtoneLum="0" crs:ColorGradeHighlightHue="50" crs:ColorGradeHighlightSat="7.5" crs:ColorGradeHighlightLum="0" crs:ColorGradeShadowHue="220" crs:ColorGradeShadowSat="11.3" crs:ColorGradeShadowLum="0" crs:ColorGradeGlobalHue="0" crs:ColorGradeGlobalSat="0" crs:ColorGradeGlobalLum="0" crs:ColorGradeBlending="50" crs:ColorGradeBalance="0">
 <crs:Name>
 <rdf:Alt>
 <rdf:li xml:lang="x-default">04 Kodachrome 64</rdf:li>
 </rdf:Alt>
 </crs:Name>
 <crs:Group>
 <rdf:Alt>
 <rdf:li xml:lang="x-default">Slide</rdf:li>
 </rdf:Alt>
 </crs:Group>
 <crs:Look>
 
 <rdf:Description crs:Name="Adobe Vivid" crs:Amount="1.000000" crs:UUID="EA1DE074F188405965EF399C72C221D9" crs:SupportsAmount="True" crs:SupportsMonochrome="False" crs:SupportsOutputReferred="True">
 <crs:Group>
 <rdf:Alt>
 <rdf:li xml:lang="x-default">Profiles</rdf:li>
 </rdf:Alt>
 </crs:Group>
 </rdf:Description>
 </crs:Look>
<crs:ToneCurvePV2012><rdf:Seq><rdf:li>0, 20</rdf:li><rdf:li>64, 55</rdf:li><rdf:li>128, 128</rdf:li><rdf:li>192, 196</rdf:li><rdf:li>255, 235</rdf:li></rdf:Seq></crs:ToneCurvePV2012><crs:ToneCurvePV2012Red><rdf:Seq><rdf:li>0, 20</rdf:li><rdf:li>64, 55</rdf:li><rdf:li>128, 128</rdf:li><rdf:li>192, 196</rdf:li><rdf:li>255, 235</rdf:li></rdf:Seq></crs:ToneCurvePV2012Red><crs:ToneCurvePV2012Green><rdf:Seq><rdf:li>0, 20</rdf:li><rdf:li>64, 55</rdf:li><rdf:li>128, 128</rdf:li><rdf:li>192, 196</rdf:li><rdf:li>255, 235</rdf:li></rdf:Seq></crs:ToneCurvePV2012Green><crs:ToneCurvePV2012Blue><rdf:Seq><rdf:li>0, 20</rdf:li><rdf:li>64, 55</rdf:li><rdf:li>128, 128</rdf:li><rdf:li>192, 196</rdf:li><rdf:li>255, 235</rdf:li></rdf:Seq></crs:ToneCurvePV2012Blue></rdf:Description>
 </rdf:RDF>
</x:xmpmeta>