Presets/Slide/Kodak Ektachrome E100.xmp
<x:xmpmeta xmlns:x="adobe:ns:meta/" x:xmptk="Adobe XMP Core 7.0-c000 1.000000, 0000/00/00-00:00:00        ">
 <rdf:RDF xmlns:rdf="http://www.w3.org/1999/02/22-rdf-syntax-ns#">
  <rdf:Description rdf:about=""
    xmlns:crs="http://ns.adobe.com/camera-raw-settings/1.0/"
    crs:PresetType="Normal"
    crs:Cluster=""
    crs:UUID="FEFAD93CFAEF4052AFD713000FDB7D59"
    crs:SupportsAmount="False"
    crs:SupportsColor="True"
    crs:SupportsMonochrome="True"
    crs:SupportsHighDynamicRange="True"
    crs:SupportsNormalDynamicRange="True"
    crs:SupportsSceneReferred="True"
    crs:SupportsOutputReferred="True"
    crs:RequiresRenditionBehavior="True"
    crs:Name="10 Kodak Ektachrome E100"
    crs:HasSettings="True"
    crs:Contrast2012="+42.5"
    crs:Highlights2012="-40"
    crs:Shadows2012="+20"
    crs:Whites2012="+15"
    crs:Blacks2012="-40"
    crs:Clarity2012="+13.8"
    crs:Vibrance="+2.5"
    crs:Saturation="+7.5"
    crs:Texture="0"
    crs:HueAdjustmentRed="+10"
    crs:HueAdjustmentOrange="-5"
    crs:HueAdjustmentYellow="-5"
    crs:HueAdjustmentGreen="+15"
    crs:HueAdjustmentAqua="+10"
    crs:HueAdjustmentBlue="-12.5"
    crs:HueAdjustmentPurple="+10"
    crs:HueAdjustmentMagenta="+5"
    crs:SaturationAdjustmentRed="-5"
    crs:SaturationAdjustmentOrange="0"
    crs:SaturationAdjustmentYellow="0"
    crs:SaturationAdjustmentGreen="-10"
    crs:SaturationAdjustmentAqua="0"
    crs:SaturationAdjustmentBlue="+7.5"
    crs:SaturationAdjustmentPurple="0"
    crs:SaturationAdjustmentMagenta="-10"
    crs:LuminanceAdjustmentRed="0"
    crs:LuminanceAdjustmentOrange="0"
    crs:LuminanceAdjustmentYellow="0"
    crs:LuminanceAdjustmentGreen="0"
    crs:LuminanceAdjustmentAqua="0"
    crs:LuminanceAdjustmentBlue="-11.3"
    crs:LuminanceAdjustmentPurple="0"
    crs:LuminanceAdjustmentMagenta="0"
    crs:SplitToningShadowHue="215"
    crs:SplitToningShadowSaturation="7.5"
    crs:SplitToningHighlightHue="45"
    crs:SplitToningHighlightSaturation="2.8"
    crs:SplitToningBalance="-5"
    crs:GrainAmount="10"
    crs:GrainSize="25"
    crs:GrainFrequency="50">
   <crs:Name>
    <rdf:Alt>
     <rdf:li xml:lang="x-default">Slide</rdf:li>
    </rdf:Alt>
   </crs:Name>
   <crs:Group>
    <rdf:Alt>
     <rdf:li xml:lang="x-default">Slide</rdf:li>
    </rdf:Alt>
   </crs:Group>
  </rdf:Description>
 </rdf:RDF>
</x:xmpmeta>
