Presets/Video/Kodachrome 64 Video.xmp
<x:xmpmeta xmlns:crs="http://ns.adobe.com/camera-raw-settings/1.0/" xmlns:rdf="http://www.w3.org/1999/02/22-rdf-syntax-ns#" xmlns:x="adobe:ns:meta/" x:xmptk="Adobe XMP Core 7.0-c000 1.000000, 0000/00/00-00:00:00">
 <rdf:RDF>
 
 <rdf:Description rdf:about="" crs:PresetType="Normal" crs:Cluster="" crs:UUID="AE14C2F853024818BACFA030952F009C" crs:SupportsAmount="True" crs:SupportsColor="True" crs:SupportsMonochrome="False" crs:SupportsHighDynamicRange="True" crs:SupportsNormalDynamicRange="True" crs:SupportsSceneReferred="True" crs:SupportsOutputReferred="True" crs:RequiresRenditionBehavior="True" crs:Name="Kodachrome 64 Video" crs:Treatment="Color" crs:ProcessVersion="15.4" crs:HasSettings="True" crs:Sharpness="10" crs:LuminanceSmoothing="0" crs:Blacks2012="-15" crs:Clarity2012="0" crs:Contrast2012="15" crs:Exposure2012="+0.10" crs:GrainAmount="22" crs:GrainFrequency="50" crs:GrainSize="20" crs:Highlights2012="-21.8" crs:HueAdjustmentRed="+10" crs:HueAdjustmentYellow="-5" crs:HueAdjustmentGreen="+15" crs:HueAdjustmentBlue="-10" crs:LuminanceAdjustmentRed="-10" crs:LuminanceAdjustmentBlue="-15" crs:Saturation="-5" crs:SaturationAdjustmentRed="+20" crs:SaturationAdjustmentAqua="+15" crs:SaturationAdjustmentBlue="+17.5" crs:Shadows2012="+22.5" crs:Texture="0" crs:Vibrance="-5" crs:Whites2012="-10" crs:ColorGradeMidtoneHue="0" crs:ColorGradeMidtoneSat="0" crs:ColorGradeMidtoneLum="0" crs:ColorGradeHighlightHue="50" crs:ColorGradeHighlightSat="7.5" crs:ColorGradeHighlightLum="0" crs:ColorGradeShadowHue="220" crs:ColorGradeShadowSat="11.3" crs:ColorGradeShadowLum="0" crs:ColorGradeGlobalHue="0" crs:ColorGradeGlobalSat="0" crs:ColorGradeGlobalLum="0" crs:ColorGradeBlending="75" crs:ColorGradeBalance="0" crs:Amount="1.000000" crs:Dehaze="0">
 <crs:Name>
 <rdf:Alt>
 <rdf:li xml:lang="x-default">Kodachrome 64 Video</rdf:li>
 </rdf:Alt>
 </crs:Name>
 <crs:Group>
 <rdf:Alt>
 <rdf:li xml:lang="x-default">Video</rdf:li>
 </rdf:Alt>
 </crs:Group>
 <crs:Look>
 
 
 <rdf:Description crs:Name="Adobe Color" crs:Amount="1.000000" crs:UUID="B952C21111114111B1115456789ABCDE" crs:SupportsAmount="True" crs:SupportsMonochrome="False" crs:SupportsOutputReferred="True">
 <crs:Group>
 <rdf:Alt>
 <rdf:li xml:lang="x-default">Profiles</rdf:li>
 </rdf:Alt>
 </crs:Group>
 </rdf:Description>
 </crs:Look>
 <crs:ToneCurvePV2012><rdf:Seq><rdf:li>0, 0</rdf:li><rdf:li>42, 28</rdf:li><rdf:li>128, 128</rdf:li><rdf:li>213, 230</rdf:li><rdf:li>255, 255</rdf:li></rdf:Seq></crs:ToneCurvePV2012><crs:ToneCurvePV2012Red><rdf:Seq><rdf:li>0, 0</rdf:li><rdf:li>42, 28</rdf:li><rdf:li>128, 128</rdf:li><rdf:li>213, 230</rdf:li><rdf:li>255, 255</rdf:li></rdf:Seq></crs:ToneCurvePV2012Red><crs:ToneCurvePV2012Green><rdf:Seq><rdf:li>0, 0</rdf:li><rdf:li>42, 28</rdf:li><rdf:li>128, 128</rdf:li><rdf:li>213, 230</rdf:li><rdf:li>255, 255</rdf:li></rdf:Seq></crs:ToneCurvePV2012Green><crs:ToneCurvePV2012Blue><rdf:Seq><rdf:li>0, 0</rdf:li><rdf:li>42, 28</rdf:li><rdf:li>128, 128</rdf:li><rdf:li>213, 230</rdf:li><rdf:li>255, 255</rdf:li></rdf:Seq></crs:ToneCurvePV2012Blue></rdf:Description>
 </rdf:RDF>
</x:xmpmeta>